X:1
T:Sybille Föhrenbach
T:Sybille Föhrenbach
T:Anselm Lingnau
C:Anselm Lingnau
L:1/8
M:4/4
K:C
V:1 treble 
V:1
S ue dedcaed ugd fed ad fe dacebeF"^ohrenbach from Freiburg in southwestern Germany.\n[M:C][E:7][K:G]\nD2|"G"^G2 B>A G2 D2|"A"^E<E c>B"D"^A3 D|"G"^G<G d>c BGDB,|"A"^C<C A>G"D"F2" d>c"G" BGDB, | %1
"Am" C<C A>G"D" FAdf |"G" g<g b>a"Em" g<g"Bm" dB |"Am" c>d cB"D" A2 B>c |"G" d<d"C" g>e"G" dedB | %5
"Am" c<E"D" B>A"G" G2 |] %6

